icons/fill-new-tool-edit-setting-outline-operation.svg

<svg xmlns="http://www.w3.org/2000/svg" width="32px" height="32px" viewBox="0 0 32 32" version="1.1">
    <title>fill-new-tool-edit-setting-outline-operation</title>
    <g id="fill-new-tool-edit-setting-outline-operation" stroke-width="1" fill-rule="evenodd">
        <path d="M11,4 C12.3062521,4 13.4175144,4.8348501 13.8293257,6.00008893 L27,6 C27.5522847,6 28,6.44771525 28,7 C28,7.55228475 27.5522847,8 27,8 L13.8289758,8.00090072 C13.4168852,9.16562257 12.3058822,10 11,10 C9.69411778,10 8.58311485,9.16562257 8.17102423,8.00090072 L5,8 C4.44771525,8 4,7.55228475 4,7 C4,6.44771525 4.44771525,6 5,6 L8.17067428,6.00008893 C8.58248558,4.8348501 9.69374794,4 11,4 Z M21,13 C22.3062521,13 23.4175144,13.8348501 23.8293257,15.0000889 L27,15 C27.5522847,15 28,15.4477153 28,16 C28,16.5522847 27.5522847,17 27,17 L23.8289758,17.0009007 C23.4168852,18.1656226 22.3058822,19 21,19 C19.6941178,19 18.5831148,18.1656226 18.1710242,17.0009007 L5,17 C4.44771525,17 4,16.5522847 4,16 C4,15.4477153 4.44771525,15 5,15 L18.1706743,15.0000889 C18.5824856,13.8348501 19.6937479,13 21,13 Z M15,22 C16.3062521,22 17.4175144,22.8348501 17.8293257,24.0000889 L27,24 C27.5522847,24 28,24.4477153 28,25 C28,25.5522847 27.5522847,26 27,26 L17.8289758,26.0009007 C17.4168852,27.1656226 16.3058822,28 15,28 C13.6941178,28 12.5831148,27.1656226 12.1710242,26.0009007 L5,26 C4.44771525,26 4,25.5522847 4,25 C4,24.4477153 4.44771525,24 5,24 L12.1706743,24.0000889 C12.5824856,22.8348501 13.6937479,22 15,22 Z" id="&#24418;&#29366;" fill-rule="nonzero" />
    </g>
</svg>

<svg xmlns="http://www.w3.org/2000/svg" viewBox="0 0 32 32"><path fill="currentColor" d="M11 4c1.306 0 2.418.835 2.83 2H27a1 1 0 0 1 0 2H13.829a3.001 3.001 0 0 1-5.658 0H5a1 1 0 1 1 0-2h3.17A3.001 3.001 0 0 1 11 4m10 9c1.306 0 2.418.835 2.83 2H27a1 1 0 0 1 0 2h-3.171a3.001 3.001 0 0 1-5.658 0H5a1 1 0 0 1 0-2h13.17A3.001 3.001 0 0 1 21 13m-6 9c1.306 0 2.418.835 2.83 2H27a1 1 0 0 1 0 2h-9.171a3.001 3.001 0 0 1-5.658 0H5a1 1 0 0 1 0-2h7.17A3.001 3.001 0 0 1 15 22"/></svg>
